trunk/WorldWind/resources/milstd2525/icons/war/sngaucrh-------.svg

<?xml version="1.0" encoding="UTF-8" standalone="no"?>
<!--
Copyright (C) 2012 United States Government as represented by the Administrator of the
National Aeronautics and Space Administration.
All Rights Reserved.
-->

<!--
MIL-STD-2525 tactical symbol icon image. During icon composition this image is multiplied by the desired frame color 
(e.g. black), then drawn on top of the frame and fill.
-->

<svg
   xmlns:dc="http://purl.org/dc/elements/1.1/"
   xmlns:cc="http://creativecommons.org/ns#"
   xmlns:rdf="http://www.w3.org/1999/02/22-rdf-syntax-ns#"
   xmlns:svg="http://www.w3.org/2000/svg"
   xmlns="http://www.w3.org/2000/svg"
   xmlns:sodipodi="http://sodipodi.sourceforge.net/DTD/sodipodi-0.dtd"
   xmlns:inkscape="http://www.inkscape.org/namespaces/inkscape"
   height="400px"
   viewBox="0 0 400 400"
   width="400px"
   id="svg2"
   version="1.1"
   inkscape:version="0.48.2 r9819"
   sodipodi:docname="sngaucrh-------.svg">
  <metadata
     id="metadata12">
    <rdf:RDF>
      <cc:Work
         rdf:about="">
        <dc:format>image/svg+xml</dc:format>
        <dc:type
           rdf:resource="http://purl.org/dc/dcmitype/StillImage" />
      </cc:Work>
    </rdf:RDF>
  </metadata>
  <defs
     id="defs10" />
  <sodipodi:namedview
     pagecolor="#ffffff"
     bordercolor="#666666"
     borderopacity="1"
     objecttolerance="10"
     gridtolerance="10"
     guidetolerance="10"
     inkscape:pageopacity="0"
     inkscape:pageshadow="2"
     inkscape:window-width="640"
     inkscape:window-height="480"
     id="namedview8"
     showgrid="false"
     inkscape:zoom="0.59"
     inkscape:cx="200"
     inkscape:cy="200"
     inkscape:window-x="271"
     inkscape:window-y="304"
     inkscape:window-maximized="0"
     inkscape:current-layer="svg2" />
  <g
     transform="matrix(6,0,0,6,108,128)"
     id="g4"
     style="stroke:#000000;stroke-width:1;stroke-miterlimit:4;stroke-opacity:1;stroke-dasharray:2, 1;stroke-dashoffset:0">
    <path
       inkscape:connector-curvature="0"
       d="m 30.889,6.055 c 0,0.385 -0.145,0.746 -0.434,1.082 -0.289,0.336 -0.578,0.504 -0.867,0.504 -0.336,0 -0.576,-0.047 -0.721,-0.145 C 28.578,7.258 28.119,6.922 27.494,6.488 L 26.265,6.273 C 25.736,6.177 25.423,5.96 25.327,5.625 c -1.109,0.338 -2.218,1.492 -3.322,3.463 -0.146,0.578 -0.41,1.348 -0.795,2.309 -0.435,0.723 -1.107,2.021 -2.021,3.896 -0.627,1.638 -0.938,3.439 -0.938,5.412 0,0.338 0.172,0.771 0.52,1.299 0.492,0.771 0.765,1.228 0.814,1.371 l -1.697,0 c -0.297,-0.338 -0.592,-0.967 -0.887,-1.887 0,-0.338 0.059,-0.834 0.176,-1.486 0.117,-0.651 0.178,-1.147 0.178,-1.487 -0.145,0.146 -0.289,0.407 -0.432,0.791 -0.146,1.487 -0.217,2.209 -0.217,2.159 0,0.146 0.19,0.697 0.575,1.656 l -1.881,0 c -0.102,-0.287 -0.149,-0.719 -0.149,-1.297 0,-0.287 0.131,-0.898 0.396,-1.834 0.265,-0.936 0.396,-1.572 0.396,-1.908 0,-1.151 0.053,-2.641 0.158,-4.465 -3.267,-0.336 -6.002,-1.176 -8.209,-2.52 -0.386,0.482 -0.938,1.229 -1.656,2.238 -0.049,0.338 -0.146,0.795 -0.287,1.373 -0.193,0.338 -0.457,0.817 -0.793,1.442 -0.336,1.207 -0.504,1.93 -0.504,2.17 0,0.098 0.035,0.205 0.106,0.324 0.072,0.121 0.109,0.229 0.109,0.324 0.047,0.82 0.287,1.662 0.719,2.529 0.48,1.012 0.744,1.637 0.793,1.877 -0.147,0 -0.354,-0.013 -0.623,-0.035 -0.27,-0.023 -0.453,-0.012 -0.551,0.035 -0.098,0.051 -0.123,0.176 -0.072,0.375 l -2.051,0 C 3.035,23.603 3.01,23.22 3.108,22.593 2.621,21.966 2.377,21.507 2.377,21.218 c 0,0.049 0.072,-0.48 0.217,-1.59 0.145,-1.11 0.191,-1.904 0.145,-2.387 -0.12,-1.205 -0.239,-1.736 -0.36,-1.593 0.24,-0.19 0.512,-0.457 0.813,-0.795 0.181,-0.146 0.271,-0.457 0.271,-0.938 0,-0.724 -0.377,-1.592 -1.131,-2.604 C 2.28,11.36 2.256,12.68 2.256,15.272 2.162,15.848 2.068,16.401 1.975,16.927 1.787,17.698 1.319,18.368 0.569,18.944 0.381,18.798 0.358,18.68 0.5,18.586 0.444,18.49 0.28,18.441 0,18.441 c 0.25,-0.48 0.375,-0.816 0.375,-1.008 0.008,-0.672 0.008,-1.727 0,-3.168 l 0,-2.16 0,-3.384 C 0.375,8.338 0.578,7.69 0.985,6.778 1.392,5.865 1.74,5.338 2.028,5.193 2.987,4.619 3.924,4.211 4.836,3.968 6.18,3.682 7.02,3.537 7.354,3.537 c 0.814,0 1.941,0.289 3.381,0.865 1.44,0.576 2.447,0.863 3.023,0.863 0.527,0 2.373,-0.504 5.541,-1.516 C 19.873,3.462 20.785,3.03 22.033,2.452 22.463,2.307 23.565,1.995 25.344,1.514 26.303,1.225 26.926,0.866 27.215,0.432 27.311,0.145 27.405,0 27.504,0 c 0.24,0.578 0.192,1.01 -0.144,1.297 0.336,0.145 0.552,0.506 0.648,1.082 0.192,0.193 0.456,0.506 0.792,0.938 0.096,0.191 0.24,0.48 0.432,0.865 l 1.009,0.936 c 0.431,0.433 0.648,0.745 0.648,0.937 z M 4.682,22.328 4.393,21.609 l -0.145,0.072 0.217,0.646 0.217,0 z"
       style="fill:#ffffff;stroke:#000000;stroke-width:1;stroke-miterlimit:4;stroke-opacity:1;stroke-dasharray:2, 1;stroke-dashoffset:0"
       id="path6" />
  </g>
</svg>

<?xml version="1.0"?>
<!--
Copyright (C) 2012 United States Government as represented by the Administrator of the
National Aeronautics and Space Administration.
All Rights Reserved.
-->

<!DOCTYPE svg PUBLIC "-//W3C//DTD SVG 1.1//EN" "http://www.w3.org/Graphics/SVG/1.1/DTD/svg11.dtd" >
<!--
MIL-STD-2525 tactical symbol icon image. During icon composition this image is multiplied by the desired frame color 
(e.g. black), then drawn on top of the frame and fill.
-->
<svg xmlns:xlink="http://www.w3.org/1999/xlink" height="400px" viewBox="0 0 400 400" width="400px"><g transform="translate(108 128) scale(6 6)"><path d="M30.889 6.055 C30.889 6.44 30.744 6.801 30.455 7.137 C30.166 7.473 29.877 7.641 29.588      7.641 C29.252 7.641 29.012 7.594 28.867 7.496 C28.578 7.258 28.119 6.922      27.494 6.488 L26.265 6.273 C25.736 6.177 25.423 5.96 25.327 5.625 C24.218      5.963 23.109 7.117 22.005 9.088 C21.859 9.666 21.595 10.436 21.21 11.397 C20.775      12.12 20.103 13.418 19.189 15.293 C18.562 16.931 18.251 18.732 18.251      20.705 C18.251 21.043 18.423 21.476 18.771 22.004 C19.263 22.775 19.536 23.232      19.585 23.375 L17.888 23.375 C17.591 23.037 17.296 22.408 17.001 21.488 C17.001      21.15 17.06 20.654 17.177 20.002 C17.294 19.351 17.355 18.855 17.355      18.515 C17.21 18.661 17.066 18.922 16.923 19.306 C16.777 20.793 16.706 21.515      16.706 21.465 C16.706 21.611 16.896 22.162 17.281 23.121 L15.4 23.121 C15.298      22.834 15.251 22.402 15.251 21.824 C15.251 21.537 15.382 20.926 15.647 19.99      C15.912 19.054 16.043 18.418 16.043 18.082 C16.043 16.931 16.096 15.441      16.201 13.617 C12.934 13.281 10.199 12.441 7.992 11.097 C7.606 11.579 7.054      12.326 6.336 13.335 C6.287 13.673 6.19 14.13 6.049 14.708 C5.856 15.046 5.592      15.525 5.256 16.15 C4.92 17.357 4.752 18.08 4.752 18.32 C4.752 18.418 4.787      18.525 4.858 18.644 C4.93 18.765 4.967 18.873 4.967 18.968 C5.014 19.788      5.254 20.63 5.686 21.497 C6.166 22.509 6.43 23.134 6.479 23.374 C6.332 23.374      6.125 23.361 5.856 23.339 C5.586 23.316 5.403 23.327 5.305 23.374 C5.207 23.425      5.182 23.55 5.233 23.749 L3.182 23.749 C3.035 23.603 3.01 23.22 3.108      22.593 C2.621 21.966 2.377 21.507 2.377 21.218 C2.377 21.267 2.449 20.738 2.594      19.628 C2.739 18.518 2.785 17.724 2.739 17.241 C2.619 16.036 2.5 15.505      2.379 15.648 C2.619 15.458 2.891 15.191 3.192 14.853 C3.373 14.707 3.463 14.396      3.463 13.915 C3.463 13.191 3.086 12.323 2.332 11.311 C2.28 11.36 2.256 12.68      2.256 15.272 C2.162 15.848 2.068 16.401 1.975 16.927 C1.787 17.698 1.319      18.368 0.569 18.944 C0.381 18.798 0.358 18.68 0.5 18.586 C0.444 18.49 0.28      18.441 0 18.441 C0.25 17.961 0.375 17.625 0.375 17.433 C0.383 16.761 0.383      15.706 0.375 14.265 L0.375 12.105 L0.375 8.721 C0.375 8.338 0.578 7.69 0.985      6.778 C1.392 5.865 1.74 5.338 2.028 5.193 C2.987 4.619 3.924 4.211 4.836 3.968      C6.18 3.682 7.02 3.537 7.354 3.537 C8.168 3.537 9.295 3.826 10.735 4.402      C12.175 4.978 13.182 5.265 13.758 5.265 C14.285 5.265 16.131 4.761 19.299 3.749      C19.873 3.462 20.785 3.03 22.033 2.452 C22.463 2.307 23.565 1.995 25.344      1.514 C26.303 1.225 26.926 0.866 27.215 0.432 C27.311 0.145 27.405 0 27.504      0 C27.744 0.578 27.696 1.01 27.36 1.297 C27.696 1.442 27.912 1.803 28.008      2.379 C28.2 2.572 28.464 2.885 28.8 3.317 C28.896 3.508 29.04 3.797 29.232 4.182      L30.241 5.118 C30.672 5.551 30.889 5.863 30.889 6.055 zM4.682 22.328 L4.393      21.609 L4.248 21.681 L4.465 22.327 L4.682 22.327 z" style="fill:rgb(255,255,255)"/></g></svg>
